!!!OTL: 130. Wiegenlied von Joh. Matthesius.
!!!COM: Joh. Matthesius
!!!ODT: 1580 (Mel)
!!!ARE: Europa, Mitteleuropa, Deutschland
!!!SCT: K0130
!!!TXL: @@DE
!!!YEM: Copyright 1995, estate of Helmut Schaffrath.
**kern	**text
*clefG2	*
*M4/4	*
*met(c)	*
*k[b-]	*
*F:	*
{4f	1._Nun
=1	=1
4f	ſchlaf,
4f	mein
4a	lie-
4f	-bes
=2	=2
4cc	Kin-
4cc	-de-
4cc}	-lein,
{4cc	und
=3	=3
4dd	thu
4cc	dein
4a	Aug-
4b-	-lein
=4	=4
2cc	ʒu,
4r}	.
{4cc	denn
=5	=5
4cc	Gott
4cc	der
4cc	will
4a	dein
=6	=6
4cc	Va-
4cc	-ter
4a}	ſein,
{4cc	drum
=7	=7
4b-	ſchlaf
4a	in
4g	gu-
4g	-ter
=8	=8
2f}	Ruh,
{2a	drum
=9	=9
4cc	ſchlaf
4a	in
4g	gu-
4g	-ter
=10	=10
1f;}	Ruh.
==	==
!!!AGN: Kinder -, Wiegen - Lied
!!!ONB: ESAC (Essen Associative Code) Database: KINDER
!!!AMT: simple quadruple
!!!AIN: vox
!!!EED: Helmut Schaffrath
!!!EEV: 1.0
!!!GTL: I. Wiegenlieder.
!!Mel. 1580
!!@@COMMENT:"'Ein Wiegenlied für gotſelige Kindermeidlein' von Johannes Mattheſius, dem Schüler, Freunde und Biographen Dr. Luther's. Text 
!!ʒuerſt als Einʒeldruck mit einem andern Liede von Mattheſius o. J. Gedr. Nürnberg durch Friedrich Gutknecht. Mit Mel. ʒuerſt in 
!!Mattheſius' Nachlaß von Fel. Ʒimmermann. Nürnberg 1580. Dann in vielen Kirchengeſangbüchern, im Frankfurter 1581, Straßburger 
!!1586, Nürnberger 1589, Hamburger 1598 u. a. Der geiſtliche Liederdichter Magiſter Joh. Mattheſius war geboren 24. Juni 1504 ʒu 
!!Rochlitʒ und ſtarb 7. Oktober 1565. Vollſtändiger Textabdruck bei Wackernagel, Kirchenlied 1841, davon hier bloß 4 Strophen."
!!@@END:
!!!URL-scan: https://archive.org/details/DeutschesKinderliedUndKinderspiel/page/37/mode/1up
!!!ENC: Anna Maria Matuszewska
!!!EEV: 2024/30/08
*-	*-
